X: 99
T: H\"ok\"orarn
T: the Hawks
T: Vals av Anders i Log\aarn
O: J\"amtland, Sweden
R: waltz
S: http://folksweden.com/files/099-Hokorarn.pdf (Tim Rued)
Z: 2021 John Chambers <jc:trillian.mit.edu>
M: 3/4
L: 1/8
K: D
|:\
A,2 | D3 E FG | F2 A2 d2 | A3 G FA | d2 f2 a2 | g3 f ed | cB Ac ec | dc de fd | A4 ||
A,2 | D3 E FG | F2 A2 d2 | A3 G FA | d2 f2 a2 | g3 f ed | cB Ac ec | d3 d d2 | d4 :|
|:\
fg | a3 b ag | fg af dc | B3 A GF | GA BG ED | CB,A,B, CD | EG Ac ec | dc de fd | A4 ||
fg | a3 b ag | fg af dc | B3 A GF | GA BG ED | CB,A,B, CD | EG Ac ec | d3 d d2 | d4 :|
